icons/Star-Splash.svg

<svg width="24" height="24" viewBox="0 0 24 24" fill="none" xmlns="http://www.w3.org/2000/svg">
<g id="Star-Splash">
<path id="Vector" d="M19.16 9.28C19.3564 9.39858 19.523 9.56063 19.647 9.7537C19.7709 9.94676 19.849 10.1657 19.875 10.3936C19.9011 10.6216 19.8746 10.8525 19.7974 11.0686C19.7203 11.2846 19.5946 11.4801 19.43 11.64L17.37 13.64C17.1903 13.8127 17.0568 14.0276 16.9817 14.2652C16.9066 14.5028 16.8922 14.7554 16.94 15L17.42 17.84C17.4662 18.1149 17.4348 18.3972 17.3295 18.6553C17.2242 18.9134 17.049 19.137 16.8236 19.3011C16.5983 19.4652 16.3317 19.5632 16.0537 19.5842C15.7758 19.6052 15.4974 19.5484 15.25 19.42L12.7 18.06C12.484 17.947 12.2438 17.8879 12 17.8879C11.7562 17.8879 11.516 17.947 11.3 18.06L8.75 19.4" stroke="#00153F" stroke-width="1.5" stroke-linecap="round" stroke-linejoin="round"/>
<path id="Vector_2" d="M6.72001 17L7.06001 15C7.10256 14.76 7.08561 14.5133 7.01065 14.2814C6.93568 14.0496 6.80498 13.8396 6.63001 13.67L4.57001 11.67C4.36015 11.4761 4.21003 11.2264 4.13729 10.9501C4.06455 10.6738 4.07223 10.3825 4.15942 10.1104C4.2466 9.83835 4.40968 9.59684 4.62945 9.4143C4.84923 9.23175 5.11656 9.11577 5.40001 9.07999L8.25001 8.66999C8.49073 8.63517 8.71937 8.54233 8.91623 8.39948C9.11309 8.25663 9.27225 8.06805 9.38001 7.84999L10.65 5.25999C10.7755 5.00948 10.9683 4.79883 11.2067 4.65163C11.4451 4.50442 11.7198 4.42645 12 4.42645C12.2802 4.42645 12.5549 4.50442 12.7933 4.65163C13.0317 4.79883 13.2245 5.00948 13.35 5.25999L14.62 7.84999C14.7306 8.06519 14.8878 8.25307 15.08 8.39999" stroke="#00153F" stroke-width="1.5" stroke-linecap="round" stroke-linejoin="round"/>
<path id="Vector_3" d="M20.25 3.75L3.75 20.25" stroke="#00153F" stroke-width="1.5" stroke-linecap="round" stroke-linejoin="round"/>
</g>
</svg>

<svg xmlns="http://www.w3.org/2000/svg" fill="none" viewBox="0 0 24 24"><path stroke="currentColor" stroke-linecap="round" stroke-linejoin="round" stroke-width="1.5" d="M19.16 9.28a1.5 1.5 0 0 1 .27 2.36l-2.06 2a1.49 1.49 0 0 0-.43 1.36l.48 2.84a1.5 1.5 0 0 1-2.17 1.58l-2.55-1.36a1.51 1.51 0 0 0-1.4 0L8.75 19.4M6.72 17l.34-2a1.49 1.49 0 0 0-.43-1.33l-2.06-2a1.5 1.5 0 0 1 .83-2.59l2.85-.41a1.5 1.5 0 0 0 1.13-.82l1.27-2.59a1.51 1.51 0 0 1 2.7 0l1.27 2.59c.11.215.268.403.46.55m5.17-4.65-16.5 16.5"/></svg>
